hosting/assets/images/header/watsUpLogo.svg

<svg width="20" height="20" viewBox="0 0 20 20" fill="none" xmlns="http://www.w3.org/2000/svg">
<path fill-rule="evenodd" clip-rule="evenodd" d="M16.7318 3.7181C14.9662 1.9599 12.6161 0.992507 10.1141 0.990997C4.95687 0.990997 0.760639 5.16239 0.759121 10.2906C0.759121 11.9296 1.18876 13.5293 2.00858 14.9404L0.680176 19.7592L5.64005 18.4659C7.0064 19.2069 8.54431 19.5978 10.1111 19.5978H10.1156C15.2713 19.5978 19.4691 15.4264 19.4706 10.2982C19.4706 7.81252 18.4975 5.4763 16.7318 3.7181ZM10.1141 18.0267H10.1111C8.71587 18.0267 7.34799 17.6539 6.15319 16.9491L5.86929 16.7816L2.92555 17.5483L3.71045 14.6959L3.52523 14.4031C2.74641 13.1732 2.3365 11.75 2.3365 10.2891C2.33802 6.02715 5.82678 2.56055 10.1156 2.56055C12.1925 2.56055 14.1449 3.36646 15.6129 4.82735C17.081 6.28824 17.8887 8.23057 17.8887 10.2951C17.8887 14.5586 14.3999 18.0267 10.1141 18.0267ZM14.3787 12.2375C14.1449 12.1212 12.9956 11.5583 12.7815 11.4814C12.5675 11.4044 12.4111 11.3651 12.2562 11.5976C12.0999 11.83 11.652 12.3537 11.5154 12.5091C11.3787 12.6646 11.2421 12.6842 11.0083 12.568C10.7745 12.4518 10.0215 12.2058 9.12881 11.4149C8.43349 10.7992 7.96437 10.0386 7.82774 9.80465C7.6911 9.57223 7.81255 9.44697 7.93097 9.33076C8.03573 9.22663 8.16477 9.05911 8.28167 8.92328C8.39857 8.78746 8.43804 8.69087 8.51547 8.53542C8.5929 8.37998 8.55494 8.24415 8.49573 8.12794C8.43804 8.01173 7.97044 6.86777 7.7746 6.40294C7.58483 5.95018 7.39202 6.01055 7.24931 6.00452C7.11268 5.99848 6.95782 5.99697 6.80145 5.99697C6.64508 5.99697 6.39306 6.05583 6.17748 6.28824C5.96342 6.52066 5.35919 7.08358 5.35919 8.22755C5.35919 9.37151 6.19722 10.4762 6.31412 10.6317C6.43102 10.7871 7.96285 13.1339 10.3069 14.1405C10.8641 14.3805 11.2998 14.5224 11.6399 14.6295C12.2001 14.8061 12.7102 14.7819 13.1125 14.7216C13.5619 14.6552 14.4956 14.1602 14.6899 13.6169C14.8842 13.0735 14.8842 12.6087 14.8265 12.5121C14.7688 12.4125 14.6125 12.3537 14.3787 12.2375Z" fill="white"/>
</svg>

<svg width="20" height="20" fill="none" xmlns="http://www.w3.org/2000/svg"><path fill-rule="evenodd" clip-rule="evenodd" d="M16.732 3.718A9.323 9.323 0 0010.114.991C4.957.991.761 5.162.76 10.291c0 1.639.43 3.238 1.25 4.65L.68 19.758l4.96-1.293a9.382 9.382 0 004.471 1.132h.005c5.155 0 9.353-4.172 9.355-9.3a9.225 9.225 0 00-2.74-6.58zm-6.618 14.309h-.003a7.792 7.792 0 01-3.958-1.078l-.284-.167-2.943.766.784-2.852-.185-.293a7.677 7.677 0 01-1.188-4.114c.001-4.262 3.49-7.728 7.779-7.728 2.077 0 4.029.805 5.497 2.266a7.663 7.663 0 012.276 5.468c0 4.264-3.49 7.732-7.775 7.732zm4.265-5.79c-.234-.116-1.383-.679-1.598-.756-.213-.077-.37-.116-.525.117-.156.232-.604.756-.74.911-.137.156-.274.175-.508.059-.233-.116-.986-.362-1.88-1.153-.695-.616-1.164-1.376-1.3-1.61-.137-.233-.015-.358.103-.474.105-.104.234-.272.35-.408.118-.136.157-.232.234-.388.078-.155.04-.29-.02-.407-.057-.116-.525-1.26-.72-1.725-.19-.453-.383-.392-.526-.398a10.486 10.486 0 00-.448-.008.865.865 0 00-.624.291c-.214.233-.818.796-.818 1.94s.838 2.248.955 2.404c.117.155 1.649 2.502 3.993 3.508.557.24.993.382 1.333.49.56.176 1.07.152 1.473.092.449-.067 1.383-.562 1.577-1.105.194-.544.194-1.008.136-1.105-.057-.1-.213-.158-.447-.274z" fill="#fff"/></svg>
